svgs/sharp-solid/nfc-pen.svg

<svg xmlns="http://www.w3.org/2000/svg" viewBox="0 0 576 512"><!--! Font Awesome Pro 6.6.0 by @fontawesome - https://fontawesome.com License - https://fontawesome.com/license (Commercial License) Copyright 2024 Fonticons, Inc. --><path d="M0 32l448 0 0 204.4-64 64L384 112l0-16-16 0L224 96l-16 0 0 16 0 98.7c-18.6 6.6-32 24.4-32 45.3c0 26.5 21.5 48 48 48s48-21.5 48-48c0-20.9-13.4-38.7-32-45.3l0-82.7 112 0 0 204.4L300.4 384 96 384l0-256 48 0 16 0 0-32-16 0L80 96 64 96l0 16 0 288 0 16 16 0 188.4 0-1.4 1.4L258 480 0 480 0 32zM505 223.8l71 71-41.3 41.3-71-71L505 223.8zm-63.9 63.9l71 71L370.9 500 288 511.9 299.9 429 441.1 287.8z"/></svg>

<svg xmlns="http://www.w3.org/2000/svg" viewBox="0 0 576 512"><!--! Font Awesome Pro 6.4.2 by @fontawesome - https://fontawesome.com License - https://fontawesome.com/license (Commercial License) Copyright 2023 Fonticons, Inc. --><path d="M0 32H448V236.4l-64 64V112 96H368 224 208v16 98.7c-18.6 6.6-32 24.4-32 45.3c0 26.5 21.5 48 48 48s48-21.5 48-48c0-20.9-13.4-38.7-32-45.3V128H352V332.4L300.4 384H96V128h48 16V96H144 80 64v16V400v16H80 268.4l-1.4 1.4L258 480H0V32zM505 223.8l71 71-41.3 41.3-71-71L505 223.8zm-63.9 63.9l71 71L370.9 500 288 511.9 299.9 429 441.1 287.8z"/></svg>
